;FLAVOR:Marlin
;TIME:5795
;Filament used: 4.57791m
;Layer height: 0.15
;MINX:-33.582
;MINY:-6.6
;MINZ:0.3
;MAXX:33.582
;MAXY:6.6
;MAXZ:31.2
;Generated with Cura_SteamEngine 4.4.1
M140 S60
M105
M190 S60
M104 S200
M105
M109 S200
M82 ;absolute extrusion mode
G21        ;metric values
G90        ;absolute positioning
M107       ;start with the fan off
G28   ;move to endstops
G92 E0                  ;zero the extruded length
G1 F200 E3              ;extrude 3mm of feed stock
G92 E0                  ;zero the extruded length again
G1 F120
;Put printing message on LCD screen
M117 Printing...
G92 E0
G92 E0
G1 F1500 E-6.5
;LAYER_COUNT:207
;LAYER:0
M107
G0 F3600 X-26.327 Y6.6 Z0.3
;TYPE:SKIRT
G1 F1500 E0
G1 X-26.376 Y6.6 E0.00269
G1 X-27.046 Y6.591 E0.03946
G1 X-27.232 Y6.583 E0.04968
G1 X-27.432 Y6.57 E0.06068
G1 X-27.539 Y6.562 E0.06657
G1 X-27.833 Y6.534 E0.08277
G1 X-28.34 Y6.449 E0.11099
G1 X-28.641 Y6.376 E0.12798
G1 X-28.806 Y6.331 E0.13737
G1 X-29.031 Y6.265 E0.15024
G1 X-29.455 Y6.112 E0.17497
G1 X-29.641 Y6.031 E0.18611
G1 X-29.719 Y5.996 E0.1908
G1 X-29.954 Y5.887 E0.20502
G1 X-30.357 Y5.667 E0.23021
G1 X-30.546 Y5.548 E0.24247
G1 X-30.682 Y5.459 E0.25139
G1 X-30.908 Y5.302 E0.26649
G1 X-31.321 Y4.967 E0.29568
G1 X-31.695 Y4.615 E0.32386
G1 X-32.07 Y4.202 E0.35448
G1 X-32.234 Y3.991 E0.36914
G1 X-32.301 Y3.903 E0.37521
G1 X-32.441 Y3.711 E0.38825
G1 X-32.689 Y3.32 E0.41366
G1 X-32.786 Y3.143 E0.42474
G1 X-32.846 Y3.028 E0.43186
G1 X-32.975 Y2.771 E0.44764
G1 X-33.178 Y2.281 E0.47674
G1 X-33.28 Y1.971 E0.49465
G1 X-33.316 Y1.853 E0.50142
G1 X-33.374 Y1.654 E0.5128
G1 X-33.477 Y1.192 E0.53878
G1 X-33.509 Y0.983 E0.55038
G1 X-33.523 Y0.876 E0.5563
G1 X-33.556 Y0.607 E0.57118
G1 X-33.582 Y0.095 E0.59931
G1 X-33.572 Y-.394 E0.62615
G1 X-33.513 Y-.973 E0.65809
G1 X-33.458 Y-1.271 E0.67472
G1 X-33.438 Y-1.372 E0.68037
G1 X-33.393 Y-1.582 E0.69216
G1 X-33.261 Y-2.045 E0.71858
G1 X-33.182 Y-2.265 E0.73141
G1 X-33.135 Y-2.39 E0.73874
G1 X-33.037 Y-2.634 E0.75317
G1 X-32.839 Y-3.047 E0.7783
G1 X-32.729 Y-3.244 E0.79068
G1 X-32.66 Y-3.362 E0.79819
G1 X-32.515 Y-3.6 E0.81348
G1 X-32.227 Y-4.007 E0.84084
G1 X-32.074 Y-4.194 E0.8541
G1 X-32.001 Y-4.281 E0.86034
G1 X-31.823 Y-4.485 E0.87519
G1 X-31.433 Y-4.868 E0.90519
G1 X-31.06 Y-5.183 E0.93198
G1 X-30.627 Y-5.497 E0.96134
G1 X-30.392 Y-5.642 E0.97649
G1 X-30.281 Y-5.708 E0.98358
G1 X-30.091 Y-5.816 E0.99557
G1 X-29.671 Y-6.02 E1.0212
G1 X-29.438 Y-6.115 E1.03501
G1 X-29.311 Y-6.163 E1.04246
G1 X-29.064 Y-6.253 E1.05688
G1 X-28.64 Y-6.379 E1.08116
G1 X-28.436 Y-6.426 E1.09265
G1 X-28.27 Y-6.46 E1.10195
G1 X-27.994 Y-6.51 E1.11734
G1 X-27.422 Y-6.567 E1.14888
G1 X-26.755 Y-6.58 E1.1855
G1 X-26.686 Y-6.581 E1.18928
G1 X26.327 Y-6.6 E4.0986
G1 X26.376 Y-6.6 E4.10128
G1 X27.047 Y-6.591 E4.13811
G1 X27.297 Y-6.579 E4.15185
G1 X27.79 Y-6.538 E4.179
G1 X28.34 Y-6.449 E4.20957
G1 X28.641 Y-6.376 E4.22657
G1 X28.806 Y-6.331 E4.23596
G1 X29.031 Y-6.265 E4.24882
G1 X29.455 Y-6.112 E4.27356
G1 X29.641 Y-6.031 E4.28469
G1 X29.724 Y-5.993 E4.2897
G1 X29.958 Y-5.884 E4.30387
G1 X30.362 Y-5.664 E4.32912
G1 X30.547 Y-5.547 E4.34113
G1 X30.667 Y-5.467 E4.34904
G1 X30.896 Y-5.309 E4.36431
G1 X31.313 Y-4.973 E4.3937
G1 X31.677 Y-4.632 E4.42107
G1 X32.045 Y-4.232 E4.4509
G1 X32.219 Y-4.011 E4.46634
G1 X32.296 Y-3.909 E4.47335
G1 X32.432 Y-3.723 E4.486
G1 X32.712 Y-3.274 E4.51504
G1 X32.943 Y-2.835 E4.54226
G1 X33.187 Y-2.251 E4.57699
G1 X33.343 Y-1.761 E4.60522
G1 X33.467 Y-1.245 E4.63434
G1 X33.503 Y-1.023 E4.64668
G1 X33.521 Y-.897 E4.65367
G1 X33.555 Y-.627 E4.6686
G1 X33.582 Y-.105 E4.69729
G1 X33.572 Y0.392 E4.72457
G1 X33.513 Y0.973 E4.75662
G1 X33.458 Y1.271 E4.77325
G1 X33.438 Y1.372 E4.7789
G1 X33.393 Y1.582 E4.79068
G1 X33.262 Y2.042 E4.81693
G1 X33.185 Y2.257 E4.82946
G1 X33.137 Y2.385 E4.83697
G1 X33.035 Y2.639 E4.85199
G1 X32.833 Y3.06 E4.87761
G1 X32.733 Y3.238 E4.88882
G1 X32.672 Y3.341 E4.89539
G1 X32.518 Y3.595 E4.91169
G1 X32.22 Y4.016 E4.93999
G1 X32.076 Y4.191 E4.95243
G1 X32.016 Y4.263 E4.95758
G1 X31.833 Y4.474 E4.9729
G1 X31.443 Y4.859 E5.00298
G1 X31.079 Y5.168 E5.02918
G1 X30.648 Y5.483 E5.05848
G1 X30.408 Y5.632 E5.07398
G1 X30.309 Y5.691 E5.08031
G1 X30.115 Y5.803 E5.0926
G1 X29.684 Y6.015 E5.11896
G1 X29.448 Y6.112 E5.13296
G1 X29.299 Y6.169 E5.14172
G1 X29.052 Y6.258 E5.15612
G1 X28.647 Y6.378 E5.17931
G1 X28.449 Y6.424 E5.19046
G1 X28.275 Y6.46 E5.20021
G1 X27.993 Y6.511 E5.21594
G1 X27.422 Y6.567 E5.24743
G1 X26.755 Y6.58 E5.28404
G1 X26.686 Y6.581 E5.28782
G1 X-26.327 Y6.6 E8.19714
G0 F3600 X-26.327 Y6.2
G1 F1500 X-26.371 Y6.2 E8.19955
G1 X-27.041 Y6.191 E8.23632
G1 X-27.206 Y6.184 E8.24539
G1 X-27.406 Y6.171 E8.25639
G1 X-27.501 Y6.164 E8.26161
G1 X-27.795 Y6.136 E8.27782
G1 X-28.246 Y6.06 E8.30292
G1 X-28.547 Y5.987 E8.31992
G1 X-28.694 Y5.948 E8.32826
G1 X-28.919 Y5.882 E8.34113
G1 X-29.296 Y5.745 E8.36315
G1 X-29.482 Y5.664 E8.37428
G1 X-29.55 Y5.633 E8.37838
G1 X-29.785 Y5.524 E8.3926
G1 X-30.144 Y5.329 E8.41502
G1 X-30.333 Y5.21 E8.42727
G1 X-30.454 Y5.13 E8.43523
G1 X-30.68 Y4.973 E8.45034
G1 X-31.047 Y4.675 E8.47628
G1 X-31.421 Y4.323 E8.50447
G1 X-31.755 Y3.957 E8.53166
G1 X-31.919 Y3.746 E8.54632
G1 X-31.978 Y3.667 E8.55174
G1 X-32.118 Y3.475 E8.56478
G1 X-32.338 Y3.128 E8.58732
G1 X-32.435 Y2.951 E8.5984
G1 X-32.489 Y2.849 E8.60473
G1 X-32.618 Y2.592 E8.62052
G1 X-32.798 Y2.156 E8.6464
G1 X-32.9 Y1.846 E8.66431
G1 X-32.932 Y1.741 E8.67034
G1 X-32.99 Y1.542 E8.68171
G1 X-33.081 Y1.131 E8.70481
G1 X-33.113 Y0.922 E8.71642
G1 X-33.126 Y0.828 E8.72162
G1 X-33.159 Y0.559 E8.7365
G1 X-33.182 Y0.104 E8.7615
G1 X-33.172 Y-.385 E8.78834
G1 X-33.12 Y-.901 E8.8168
G1 X-33.065 Y-1.199 E8.83343
G1 X-33.047 Y-1.288 E8.83841
G1 X-33.002 Y-1.498 E8.8502
G1 X-32.885 Y-1.909 E8.87365
G1 X-32.806 Y-2.129 E8.88648
G1 X-32.763 Y-2.241 E8.89306
G1 X-32.665 Y-2.485 E8.90749
G1 X-32.49 Y-2.852 E8.92981
G1 X-32.38 Y-3.049 E8.94219
G1 X-32.319 Y-3.154 E8.94885
G1 X-32.174 Y-3.392 E8.96415
G1 X-31.918 Y-3.753 E8.98844
G1 X-31.765 Y-3.94 E9.0017
G1 X-31.699 Y-4.018 E9.0073
G1 X-31.521 Y-4.222 E9.02216
G1 X-31.175 Y-4.563 E9.04882
G1 X-30.802 Y-4.878 E9.07561
G1 X-30.417 Y-5.156 E9.10168
G1 X-30.182 Y-5.301 E9.11683
G1 X-30.083 Y-5.36 E9.12315
G1 X-29.893 Y-5.468 E9.13515
G1 X-29.52 Y-5.649 E9.1579
G1 X-29.287 Y-5.744 E9.17171
G1 X-29.175 Y-5.788 E9.17831
G1 X-28.928 Y-5.878 E9.19274
G1 X-28.55 Y-5.989 E9.21436
G1 X-28.346 Y-6.036 E9.22585
G1 X-28.198 Y-6.067 E9.23415
G1 X-27.922 Y-6.117 E9.24954
G1 X-27.414 Y-6.167 E9.27755
G1 X-26.747 Y-6.18 E9.31417
G1 X-26.686 Y-6.181 E9.31751
G1 X26.327 Y-6.2 E12.22683
G1 X26.371 Y-6.2 E12.22924
G1 X27.042 Y-6.191 E12.26607
G1 X27.264 Y-6.18 E12.27827
G1 X27.757 Y-6.139 E12.30541
G1 X28.246 Y-6.06 E12.3326
G1 X28.547 Y-5.987 E12.3496
G1 X28.694 Y-5.948 E12.35794
G1 X28.919 Y-5.882 E12.37081
G1 X29.296 Y-5.745 E12.39282
G1 X29.482 Y-5.664 E12.40396
G1 X29.555 Y-5.631 E12.40835
G1 X29.789 Y-5.522 E12.42252
G1 X30.148 Y-5.326 E12.44497
G1 X30.333 Y-5.209 E12.45698
G1 X30.44 Y-5.138 E12.46403
G1 X30.669 Y-4.98 E12.4793
G1 X31.04 Y-4.681 E12.50544
G1 X31.404 Y-4.34 E12.53282
G1 X31.73 Y-3.985 E12.55927
G1 X31.904 Y-3.764 E12.5747
G1 X31.973 Y-3.673 E12.58097
G1 X32.109 Y-3.487 E12.59362
G1 X32.358 Y-3.088 E12.61943
G1 X32.589 Y-2.649 E12.64665
G1 X32.806 Y-2.13 E12.67752
G1 X32.962 Y-1.64 E12.70574
G1 X33.072 Y-1.181 E12.73165
G1 X33.108 Y-.959 E12.74399
G1 X33.124 Y-.847 E12.7502
G1 X33.158 Y-.577 E12.76513
G1 X33.182 Y-.113 E12.79063
G1 X33.172 Y0.384 E12.81791
G1 X33.12 Y0.901 E12.84643
G1 X33.065 Y1.199 E12.86306
G1 X33.047 Y1.288 E12.86804
G1 X33.002 Y1.498 E12.87983
G1 X32.886 Y1.907 E12.90316
G1 X32.809 Y2.122 E12.91569
G1 X32.766 Y2.235 E12.92232
G1 X32.664 Y2.489 E12.93735
G1 X32.484 Y2.864 E12.96017
G1 X32.384 Y3.042 E12.97138
G1 X32.33 Y3.134 E12.97723
G1 X32.176 Y3.388 E12.99353
G1 X31.911 Y3.762 E13.01869
G1 X31.767 Y3.937 E13.03113
G1 X31.713 Y4.001 E13.03572
G1 X31.53 Y4.212 E13.05105
G1 X31.184 Y4.555 E13.07779
G1 X30.82 Y4.864 E13.10399
G1 X30.437 Y5.143 E13.12999
G1 X30.197 Y5.292 E13.1455
G1 X30.109 Y5.344 E13.15111
G1 X29.915 Y5.456 E13.1634
G1 X29.532 Y5.645 E13.18684
G1 X29.296 Y5.742 E13.20084
G1 X29.164 Y5.793 E13.20861
G1 X28.917 Y5.882 E13.22302
G1 X28.556 Y5.988 E13.24366
G1 X28.358 Y6.034 E13.25482
G1 X28.203 Y6.066 E13.2635
G1 X27.921 Y6.117 E13.27923
G1 X27.414 Y6.167 E13.30719
G1 X26.747 Y6.18 E13.3438
G1 X26.686 Y6.181 E13.34715
G1 X-26.327 Y6.2 E16.25646
G1 F1500 E9.75646
;MESH:driver.STL
G0 F3600 X-26.327 Y3.664
G0 X-26.328 Y2.399
G0 X-21.511 Y1.342
;TYPE:WALL-INNER
G1 F1500 E16.25646
G1 X-21.142 Y1.621 E16.28185
G1 X-20.889 Y1.811 E16.29921
G1 X-20.225 Y1.998 E16.33707
G1 X-20.888 Y1.998 E16.34528
G1 X-21.205 Y1.998 E16.35829
G1 X-26.957 Y2 E16.67396
G1 X-27.336 Y1.97 E16.69482
G1 X-27.652 Y1.888 E16.71274
G1 X-27.966 Y1.747 E16.73163
G1 X-28.242 Y1.562 E16.74986
G1 X-28.49 Y1.329 E16.76854
G1 X-28.687 Y1.065 E16.78662
G1 X-28.846 Y0.762 E16.80539
G1 X-28.945 Y0.447 E16.82352
G1 X-28.992 Y0.115 E16.84192
G1 X-28.984 Y-.233 E16.86102
G1 X-28.923 Y-.542 E16.8783
G1 X-28.797 Y-.871 E16.89764
G1 X-28.631 Y-1.153 E16.9156
G1 X-28.413 Y-1.411 E16.93413
G1 X-28.16 Y-1.625 E16.95232
G1 X-27.867 Y-1.798 E16.97099
G1 X-27.547 Y-1.92 E16.98979
G1 X-27.241 Y-1.981 E17.00691
G1 X-21.241 Y-1.982 E17.33619
G1 X-20.829 Y-1.982 E17.3588
G1 X-20.232 Y-1.983 E17.39156
G1 X-20.828 Y-1.839 E17.39814
G1 X-21.167 Y-1.605 E17.4138
G1 X-21.428 Y-1.425 E17.4312
G1 X-21.852 Y-.803 E17.47251
G1 X-22.016 Y-0.065 E17.514
G1 X-21.901 Y0.682 E17.55548
G1 X-21.511 Y1.342 E17.59755
G0 F3600 X-20.289 Y1.612
G0 X-18.795 Y1.618
G1 F1500 X-18.779 Y1.6 E17.59887
G1 X-18.301 Y1.084 E17.63747
G1 X-18.018 Y0.386 E17.6788
G1 X-18.017 Y-.371 E17.72035
G1 X-18.283 Y-1.055 E17.76062
G1 X-18.701 Y-1.539 E17.79572
G1 X-18.816 Y-1.606 E17.80302
G1 X-19.318 Y-1.9 E17.83495
G1 X-19.864 Y-1.984 E17.86527
G1 X-19.319 Y-1.984 E17.86831
G1 X-18.737 Y-1.984 E17.88808
G1 X18.783 Y-1.997 E19.94715
G1 X19.202 Y-1.997 E19.97014
G1 X19.851 Y-1.998 E20.00576
G1 X19.203 Y-1.854 E20.01274
G1 X18.856 Y-1.619 E20.02868
G1 X18.58 Y-1.432 E20.04697
G1 X18.166 Y-.837 E20.08675
G1 X17.988 Y-.137 E20.12639
G1 X18.077 Y0.61 E20.16768
G1 X18.435 Y1.272 E20.20898
G1 X18.823 Y1.604 E20.237
G1 X18.985 Y1.742 E20.24868
G1 X19.65 Y1.984 E20.28752
G1 X18.986 Y1.984 E20.29812
G1 X18.773 Y1.984 E20.30765
G1 X-18.769 Y1.996 E22.36792
G1 X-18.794 Y1.996 E22.36926
G1 X-19.465 Y1.997 E22.40609
G1 X-20.069 Y1.998 E22.43923
G1 X-19.466 Y1.945 E22.44144
G1 X-18.795 Y1.618 E22.46487
G0 F3600 X21.121 Y1.681
G1 F1500 X21.205 Y1.597 E22.47139
G1 X21.676 Y1.126 E22.50795
G1 X21.973 Y0.429 E22.54952
G1 X21.994 Y-.302 E22.58966
G1 X21.753 Y-.995 E22.62992
G1 X21.329 Y-1.516 E22.66679
G1 X21.156 Y-1.62 E22.67786
G1 X20.69 Y-1.897 E22.70762
G1 X20.069 Y-1.998 E22.74214
G1 X20.689 Y-1.998 E22.74632
G1 X21.231 Y-1.998 E22.76535
G1 X26.957 Y-2 E23.07959
G1 X27.336 Y-1.97 E23.10045
G1 X27.652 Y-1.888 E23.11837
G1 X27.966 Y-1.747 E23.13726
G1 X28.242 Y-1.562 E23.15549
G1 X28.49 Y-1.329 E23.17416
G1 X28.687 Y-1.065 E23.19224
G1 X28.846 Y-.762 E23.21102
G1 X28.945 Y-.447 E23.22914
G1 X28.992 Y-.115 E23.24754
G1 X28.984 Y0.233 E23.26665
G1 X28.923 Y0.542 E23.28393
G1 X28.797 Y0.871 E23.30326
G1 X28.631 Y1.153 E23.32122
G1 X28.413 Y1.411 E23.33976
G1 X28.16 Y1.625 E23.35794
G1 X27.867 Y1.798 E23.37662
G1 X27.547 Y1.92 E23.39541
G1 X27.241 Y1.981 E23.41254
G1 X21.241 Y1.982 E23.74181
G1 X21.122 Y1.982 E23.7476
G1 X20.417 Y1.983 E23.78629
G1 X19.937 Y1.984 E23.81263
G1 X20.416 Y1.974 E23.8129
G1 X21.121 Y1.681 E23.83058
G0 F3600 X20.894 Y1.342
G1 F1500 X21.338 Y0.898 E23.86504
G1 X21.575 Y0.342 E23.89821
G1 X21.592 Y-.24 E23.93016
G1 X21.398 Y-.797 E23.96253
G1 X21.063 Y-1.209 E23.99167
G1 X20.551 Y-1.514 E24.02438
G1 X19.955 Y-1.611 E24.05752
G1 X19.364 Y-1.48 E24.09074
G1 X18.866 Y-1.143 E24.12374
G1 X18.536 Y-.668 E24.15548
G1 X18.394 Y-.11 E24.18708
G1 X18.465 Y0.487 E24.22007
G1 X18.751 Y1.016 E24.25307
G1 X19.19 Y1.391 E24.28476
G1 X19.732 Y1.588 E24.31641
G1 X20.332 Y1.576 E24.34934
G1 X20.894 Y1.342 E24.38275
G0 F3600 X20.949 Y1.425
G0 X27.753 Y-2.172
G0 X27.786 Y-2.266
G1 F1500 X28.161 Y-2.098 E24.4053
G1 X28.49 Y-1.878 E24.42702
G1 X28.79 Y-1.595 E24.44965
G1 X29.028 Y-1.278 E24.47141
G1 X29.215 Y-.92 E24.49357
G1 X29.337 Y-.533 E24.51584
G1 X29.393 Y-.137 E24.53779
G1 X29.383 Y0.273 E24.5603
G1 X29.307 Y0.658 E24.58183
G1 X29.161 Y1.04 E24.60428
G1 X28.955 Y1.389 E24.62652
G1 X28.7 Y1.691 E24.64821
G1 X28.388 Y1.955 E24.67064
G1 X28.042 Y2.159 E24.69268
G1 X27.659 Y2.305 E24.71517
G1 X27.28 Y2.381 E24.73639
G1 X-26.976 Y2.4 E27.71391
G1 X-27.401 Y2.366 E27.73731
G1 X-27.786 Y2.266 E27.75914
G1 X-28.161 Y2.098 E27.78169
G1 X-28.49 Y1.878 E27.80341
G1 X-28.79 Y1.595 E27.82605
G1 X-29.028 Y1.278 E27.8478
G1 X-29.215 Y0.92 E27.86997
G1 X-29.337 Y0.533 E27.89223
G1 X-29.393 Y0.137 E27.91418
G1 X-29.383 Y-.273 E27.93669
G1 X-29.307 Y-.658 E27.95823
G1 X-29.161 Y-1.04 E27.98067
G1 X-28.955 Y-1.389 E28.00291
G1 X-28.7 Y-1.691 E28.0246
G1 X-28.388 Y-1.955 E28.04703
G1 X-28.042 Y-2.159 E28.06907
G1 X-27.659 Y-2.305 E28.09157
G1 X-27.28 Y-2.381 E28.11278
G1 X26.976 Y-2.4 E31.09031
G1 X27.401 Y-2.366 E31.11371
G1 X27.786 Y-2.266 E31.13554
G0 F3600 X27.753 Y-2.172
G0 X-18.834 Y1.119
G0 X-19.565 Y1.591
G0 X-20.615 Y1.513
G0 X-21.207 Y1.07
G1 F1500 X-20.708 Y1.446 E31.16982
G1 X-20.15 Y1.603 E31.20164
G1 X-19.575 Y1.553 E31.23331
G1 X-19.038 Y1.291 E31.2661
G1 X-18.644 Y0.866 E31.29791
G1 X-18.418 Y0.308 E31.33094
G1 X-18.417 Y-.296 E31.36409
G1 X-18.631 Y-.846 E31.39648
G1 X-18.96 Y-1.227 E31.42411
G1 X-19.454 Y-1.516 E31.45551
G1 X-20.072 Y-1.611 E31.48983
G1 X-20.662 Y-1.468 E31.52314
G1 X-21.139 Y-1.138 E31.55498
G1 X-21.478 Y-.641 E31.58799
G1 X-21.609 Y-0.052 E31.6211
G1 X-21.517 Y0.545 E31.65425
G1 X-21.207 Y1.07 E31.68771
G0 F3600 X-20.903 Y0.798
;TYPE:WALL-OUTER
G1 F1500 X-20.527 Y1.081 E31.71354
G1 X-20.112 Y1.198 E31.7372
G1 X-19.684 Y1.161 E31.76078
G1 X-19.28 Y0.964 E31.78545
G1 X-18.987 Y0.648 E31.80909
G1 X-18.818 Y0.23 E31.83384
G1 X-18.817 Y-.221 E31.85859
G1 X-18.979 Y-.637 E31.88309
G1 X-19.219 Y-.915 E31.90324
G1 X-19.59 Y-1.132 E31.92683
G1 X-20.055 Y-1.204 E31.95265
G1 X-20.495 Y-1.097 E31.9775
G1 X-20.85 Y-.851 E32.00121
G1 X-21.104 Y-.479 E32.02593
G1 X-21.202 Y-0.039 E32.05067
G1 X-21.133 Y0.408 E32.07549
G1 X-20.903 Y0.798 E32.10033
G0 F3600 X-20.743 Y0.918
G1 F1500 E25.60033
G0 F3600 X-21.045 Y1.316
G0 X-20.153 Y1.642
G0 X20.34 Y1.615
G0 X20.667 Y1.003
G1 F1500 E32.10033
G1 X21 Y0.67 E32.12618
G1 X21.177 Y0.255 E32.15094
G1 X21.19 Y-.178 E32.17471
G1 X21.043 Y-.599 E32.19918
G1 X20.797 Y-.902 E32.2206
G1 X20.412 Y-1.131 E32.24519
G1 X19.966 Y-1.204 E32.26999
G1 X19.525 Y-1.106 E32.29478
G1 X19.152 Y-.854 E32.31948
G1 X18.906 Y-.499 E32.34319
G1 X18.8 Y-0.083 E32.36675
G1 X18.853 Y0.364 E32.39145
G1 X19.067 Y0.76 E32.41615
G1 X19.395 Y1.04 E32.43982
G1 X19.799 Y1.187 E32.46341
G1 X20.248 Y1.178 E32.48806
G1 X20.667 Y1.003 E32.51298
G0 F3600 X20.808 Y0.862
G1 F1500 E26.01298
G0 F3600 X21.161 Y1.215
G0 X27.753 Y-2.172
G0 X27.921 Y-2.644
G1 F1500 E32.51298
G1 X28.356 Y-2.449 E32.53914
G1 X28.741 Y-2.192 E32.56454
G1 X29.087 Y-1.865 E32.59067
G1 X29.368 Y-1.492 E32.6163
G1 X29.585 Y-1.074 E32.64214
G1 X29.729 Y-.621 E32.66823
G1 X29.794 Y-.159 E32.69383
G1 X29.782 Y0.313 E32.71975
G1 X29.691 Y0.774 E32.74553
G1 X29.523 Y1.214 E32.77138
G1 X29.285 Y1.618 E32.79711
G1 X28.981 Y1.977 E32.82293
G1 X28.62 Y2.283 E32.8489
G1 X28.216 Y2.521 E32.87463
G1 X27.775 Y2.69 E32.90055
G1 X27.318 Y2.781 E32.92612
G1 X-26.996 Y2.8 E35.90683
G1 X-27.464 Y2.762 E35.9326
G1 X-27.921 Y2.644 E35.9585
G1 X-28.356 Y2.449 E35.98466
G1 X-28.741 Y2.192 E36.01007
G1 X-29.087 Y1.865 E36.03619
G1 X-29.368 Y1.492 E36.06182
G1 X-29.585 Y1.074 E36.08767
G1 X-29.729 Y0.621 E36.11376
G1 X-29.794 Y0.159 E36.13936
G1 X-29.782 Y-.313 E36.16527
G1 X-29.691 Y-.774 E36.19106
G1 X-29.523 Y-1.214 E36.21691
G1 X-29.285 Y-1.618 E36.24264
G1 X-28.981 Y-1.977 E36.26845
G1 X-28.62 Y-2.283 E36.29443
G1 X-28.216 Y-2.521 E36.32016
