;FLAVOR:Marlin
;TIME:4825
;Filament used: 3.79003m
;Layer height: 0.15
;MINX:-35.646
;MINY:-40.161
;MINZ:0.3
;MAXX:35.645
;MAXY:31.13
;MAXZ:9
;Generated with Cura_SteamEngine 4.4.1
M140 S60
M105
M190 S60
M104 S200
M105
M109 S200
M82 ;absolute extrusion mode
G21        ;metric values
G90        ;absolute positioning
M107       ;start with the fan off
G28   ;move to endstops
G92 E0                  ;zero the extruded length
G1 F200 E3              ;extrude 3mm of feed stock
G92 E0                  ;zero the extruded length again
G1 F120
;Put printing message on LCD screen
M117 Printing...
G92 E0
G92 E0
G1 F1500 E-6.5
;LAYER_COUNT:59
;LAYER:0
M107
G0 F3600 X0.372 Y31.127 Z0.3
;TYPE:SKIRT
G1 F1500 E0
G1 X0.318 Y31.128 E0.00296
G1 X-0.025 Y31.13 E0.02179
G1 X-0.095 Y31.13 E0.02563
G1 X-.979 Y31.118 E0.07415
G1 X-1.061 Y31.116 E0.07865
G1 X-1.556 Y31.098 E0.10583
G1 X-1.616 Y31.095 E0.10913
G1 X-2.199 Y31.064 E0.14117
G1 X-2.271 Y31.059 E0.14513
G1 X-2.845 Y31.017 E0.17671
G1 X-2.911 Y31.012 E0.18035
G1 X-3.662 Y30.943 E0.22173
G1 X-3.731 Y30.936 E0.22554
G1 X-4.163 Y30.888 E0.24939
G1 X-4.227 Y30.88 E0.25293
G1 X-4.837 Y30.801 E0.28669
G1 X-4.905 Y30.792 E0.29045
G1 X-5.584 Y30.691 E0.32813
G1 X-5.657 Y30.679 E0.33219
G1 X-6.24 Y30.58 E0.36464
G1 X-6.3 Y30.569 E0.36799
G1 X-6.839 Y30.468 E0.39808
G1 X-6.908 Y30.455 E0.40194
G1 X-7.606 Y30.31 E0.44106
G1 X-8.178 Y30.18 E0.47325
G1 X-8.245 Y30.165 E0.47702
G1 X-8.823 Y30.022 E0.50969
G1 X-8.889 Y30.005 E0.51343
G1 X-9.498 Y29.842 E0.54803
G1 X-9.562 Y29.824 E0.55168
G1 X-10.209 Y29.638 E0.58863
G1 X-10.269 Y29.62 E0.59206
G1 X-10.742 Y29.475 E0.61921
G1 X-10.813 Y29.452 E0.62331
G1 X-11.466 Y29.237 E0.66104
G1 X-11.533 Y29.215 E0.66491
G1 X-12.02 Y29.044 E0.69323
G1 X-12.079 Y29.022 E0.69669
G1 X-12.726 Y28.782 E0.73456
G1 X-12.795 Y28.756 E0.73861
G1 X-13.33 Y28.545 E0.77017
G1 X-13.388 Y28.521 E0.77361
G1 X-13.88 Y28.317 E0.80284
G1 X-13.949 Y28.288 E0.80695
G1 X-14.657 Y27.977 E0.84939
G1 X-14.709 Y27.954 E0.85251
G1 X-15.069 Y27.789 E0.87424
G1 X-15.132 Y27.759 E0.87807
G1 X-15.846 Y27.415 E0.92157
G1 X-15.911 Y27.383 E0.92554
G1 X-16.331 Y27.17 E0.95139
G1 X-16.391 Y27.139 E0.95509
G1 X-17.056 Y26.786 E0.99641
G1 X-17.116 Y26.753 E1.00017
G1 X-17.44 Y26.573 E1.02051
G1 X-17.5 Y26.539 E1.02429
G1 X-18.225 Y26.118 E1.0703
G1 X-18.275 Y26.088 E1.0735
G1 X-18.65 Y25.862 E1.09753
G1 X-18.717 Y25.821 E1.10184
G1 X-19.343 Y25.425 E1.14249
G1 X-19.389 Y25.396 E1.14548
G1 X-19.788 Y25.135 E1.17164
G1 X-19.855 Y25.089 E1.1761
G1 X-20.446 Y24.683 E1.21545
G1 X-20.5 Y24.646 E1.21904
G1 X-20.937 Y24.334 E1.24851
G1 X-20.99 Y24.295 E1.25212
G1 X-21.482 Y23.93 E1.28574
G1 X-21.542 Y23.885 E1.28986
G1 X-22.066 Y23.479 E1.32624
G1 X-22.115 Y23.44 E1.32967
G1 X-22.521 Y23.114 E1.35825
G1 X-22.57 Y23.074 E1.36172
G1 X-23.071 Y22.657 E1.39749
G1 X-23.126 Y22.61 E1.40146
G1 X-23.584 Y22.213 E1.43472
G1 X-23.638 Y22.165 E1.43869
G1 X-24.1 Y21.748 E1.47284
G1 X-24.143 Y21.709 E1.47603
G1 X-24.526 Y21.352 E1.50476
G1 X-24.577 Y21.303 E1.50864
G1 X-25.042 Y20.852 E1.54419
G1 X-25.093 Y20.802 E1.54811
G1 X-25.524 Y20.367 E1.58172
G1 X-25.574 Y20.316 E1.58564
G1 X-26.033 Y19.834 E1.62217
G1 X-26.076 Y19.788 E1.62562
G1 X-26.419 Y19.415 E1.65343
G1 X-26.462 Y19.367 E1.65697
G1 X-26.854 Y18.925 E1.68939
G1 X-26.901 Y18.87 E1.69336
G1 X-27.338 Y18.357 E1.73034
G1 X-27.382 Y18.306 E1.73404
G1 X-27.783 Y17.817 E1.76874
G1 X-27.826 Y17.763 E1.77253
G1 X-28.132 Y17.375 E1.79965
G1 X-28.171 Y17.325 E1.80313
G1 X-28.612 Y16.745 E1.84312
G1 X-28.656 Y16.686 E1.84716
G1 X-28.951 Y16.281 E1.87465
G1 X-28.988 Y16.228 E1.8782
G1 X-29.373 Y15.679 E1.915
G1 X-29.416 Y15.617 E1.91914
G1 X-29.758 Y15.107 E1.95284
G1 X-29.789 Y15.06 E1.95593
G1 X-30.084 Y14.605 E1.98569
G1 X-30.123 Y14.544 E1.98966
G1 X-30.48 Y13.968 E2.02685
G1 X-30.518 Y13.904 E2.03094
G1 X-30.76 Y13.495 E2.05702
G1 X-30.792 Y13.44 E2.06051
G1 X-31.21 Y12.704 E2.10696
G1 X-31.241 Y12.649 E2.11042
G1 X-31.392 Y12.372 E2.12774
G1 X-31.424 Y12.311 E2.13152
G1 X-31.817 Y11.556 E2.17823
G1 X-31.851 Y11.49 E2.1823
G1 X-32.038 Y11.112 E2.20545
G1 X-32.066 Y11.054 E2.20898
G1 X-32.384 Y10.381 E2.24983
G1 X-32.415 Y10.314 E2.25388
G1 X-32.608 Y9.883 E2.2798
G1 X-32.632 Y9.827 E2.28314
G1 X-32.917 Y9.16 E2.32295
G1 X-32.943 Y9.097 E2.32669
G1 X-33.161 Y8.559 E2.35854
G1 X-33.184 Y8.503 E2.36187
G1 X-33.348 Y8.078 E2.38687
G1 X-33.376 Y8.002 E2.39131
G1 X-33.659 Y7.216 E2.43716
G1 X-33.68 Y7.157 E2.44059
G1 X-33.82 Y6.746 E2.46442
G1 X-33.841 Y6.68 E2.46822
G1 X-34.045 Y6.041 E2.50504
G1 X-34.065 Y5.978 E2.50866
G1 X-34.247 Y5.37 E2.54349
G1 X-34.265 Y5.308 E2.54703
G1 X-34.387 Y4.872 E2.57188
G1 X-34.405 Y4.803 E2.57579
G1 X-34.619 Y3.975 E2.62273
G1 X-34.638 Y3.901 E2.62692
G1 X-34.719 Y3.558 E2.64626
G1 X-34.732 Y3.5 E2.64952
G1 X-34.91 Y2.686 E2.69525
G1 X-34.924 Y2.62 E2.69895
G1 X-35.015 Y2.163 E2.72453
G1 X-35.029 Y2.088 E2.72871
G1 X-35.141 Y1.456 E2.76394
G1 X-35.15 Y1.4 E2.76705
G1 X-35.235 Y0.872 E2.7964
G1 X-35.246 Y0.804 E2.80018
G1 X-35.346 Y0.097 E2.83937
G1 X-35.355 Y0.023 E2.84346
G1 X-35.423 Y-.542 E2.87469
G1 X-35.43 Y-.607 E2.87827
G1 X-35.487 Y-1.167 E2.90917
G1 X-35.493 Y-1.227 E2.91247
G1 X-35.543 Y-1.815 E2.94486
G1 X-35.549 Y-1.895 E2.94926
G1 X-35.595 Y-2.629 E2.98962
G1 X-35.598 Y-2.691 E2.99303
G1 X-35.62 Y-3.175 E3.01962
G1 X-35.623 Y-3.244 E3.02341
G1 X-35.639 Y-3.858 E3.05712
G1 X-35.64 Y-3.917 E3.06035
G1 X-35.646 Y-4.529 E3.09394
G1 X-35.646 Y-4.603 E3.098
G1 X-35.639 Y-5.252 E3.13362
G1 X-35.637 Y-5.321 E3.13741
G1 X-35.619 Y-5.919 E3.17024
G1 X-35.617 Y-5.984 E3.17381
G1 X-35.591 Y-6.525 E3.20354
G1 X-35.586 Y-6.601 E3.20772
G1 X-35.534 Y-7.352 E3.24903
G1 X-35.529 Y-7.419 E3.25272
G1 X-35.498 Y-7.771 E3.27211
G1 X-35.492 Y-7.832 E3.27547
G1 X-35.402 Y-8.687 E3.32265
G1 X-35.394 Y-8.759 E3.32663
G1 X-35.339 Y-9.197 E3.35085
G1 X-35.329 Y-9.267 E3.35473
G1 X-35.235 Y-9.912 E3.39051
G1 X-35.227 Y-9.969 E3.39366
G1 X-35.134 Y-10.543 E3.42558
G1 X-35.12 Y-10.619 E3.42982
G1 X-34.984 Y-11.357 E3.471
G1 X-34.971 Y-11.427 E3.47491
G1 X-34.891 Y-11.818 E3.49681
G1 X-34.879 Y-11.871 E3.49979
G1 X-34.729 Y-12.551 E3.53801
G1 X-34.711 Y-12.631 E3.54251
G1 X-34.541 Y-13.326 E3.58177
G1 X-34.524 Y-13.393 E3.58557
G1 X-34.426 Y-13.763 E3.60657
G1 X-34.412 Y-13.815 E3.60953
G1 X-34.211 Y-14.53 E3.65029
G1 X-34.19 Y-14.602 E3.6544
G1 X-34.023 Y-15.152 E3.68595
G1 X-34.004 Y-15.211 E3.68935
G1 X-33.804 Y-15.831 E3.7251
G1 X-33.78 Y-15.903 E3.72926
G1 X-33.616 Y-16.377 E3.75679
G1 X-33.594 Y-16.439 E3.7604
G1 X-33.341 Y-17.129 E3.80073
G1 X-33.315 Y-17.197 E3.80473
G1 X-33.165 Y-17.582 E3.8274
G1 X-33.144 Y-17.636 E3.83058
G1 X-32.852 Y-18.351 E3.87297
G1 X-32.822 Y-18.421 E3.87715
G1 X-32.595 Y-18.945 E3.90849
G1 X-32.569 Y-19.005 E3.91207
G1 X-32.332 Y-19.526 E3.94349
G1 X-32.305 Y-19.583 E3.94695
G1 X-32.024 Y-20.173 E3.98281
G1 X-31.991 Y-20.24 E3.98691
G1 X-31.74 Y-20.74 E4.01761
G1 X-31.709 Y-20.801 E4.02137
G1 X-31.418 Y-21.354 E4.05566
G1 X-31.39 Y-21.406 E4.0589
G1 X-31.105 Y-21.927 E4.09149
G1 X-31.069 Y-21.992 E4.09557
G1 X-30.756 Y-22.537 E4.13006
G1 X-30.722 Y-22.595 E4.13375
G1 X-30.43 Y-23.082 E4.16491
G1 X-30.395 Y-23.139 E4.16858
G1 X-30.065 Y-23.667 E4.20275
G1 X-30.027 Y-23.726 E4.20661
G1 X-29.695 Y-24.235 E4.23996
G1 X-29.66 Y-24.288 E4.24344
G1 X-29.317 Y-24.794 E4.27699
G1 X-29.278 Y-24.85 E4.28073
G1 X-28.925 Y-25.35 E4.31432
G1 X-28.883 Y-25.409 E4.3183
G1 X-28.559 Y-25.849 E4.34828
G1 X-28.52 Y-25.901 E4.35185
G1 X-28.133 Y-26.407 E4.38681
G1 X-28.089 Y-26.462 E4.39068
G1 X-27.718 Y-26.928 E4.42337
G1 X-27.675 Y-26.981 E4.42711
G1 X-27.267 Y-27.474 E4.46223
G1 X-27.224 Y-27.526 E4.46593
G1 X-26.819 Y-27.997 E4.50002
G1 X-26.776 Y-28.046 E4.5036
G1 X-26.414 Y-28.452 E4.53345
G1 X-26.368 Y-28.503 E4.53722
G1 X-25.927 Y-28.979 E4.57283
G1 X-25.882 Y-29.027 E4.57644
G1 X-25.487 Y-29.438 E4.60773
G1 X-25.437 Y-29.489 E4.61165
G1 X-25.015 Y-29.911 E4.6444
G1 X-24.968 Y-29.956 E4.64797
G1 X-24.492 Y-30.415 E4.68426
G1 X-24.448 Y-30.457 E4.6876
G1 X-24.048 Y-30.83 E4.71761
G1 X-23.985 Y-30.888 E4.72231
G1 X-23.472 Y-31.344 E4.75998
G1 X-23.432 Y-31.379 E4.76289
G1 X-23.097 Y-31.668 E4.78717
G1 X-23.039 Y-31.716 E4.79131
G1 X-22.478 Y-32.18 E4.83126
G1 X-22.429 Y-32.22 E4.83473
G1 X-21.984 Y-32.575 E4.86597
G1 X-21.927 Y-32.619 E4.86992
G1 X-21.415 Y-33.011 E4.90531
G1 X-21.362 Y-33.052 E4.90899
G1 X-20.899 Y-33.393 E4.94054
G1 X-20.847 Y-33.43 E4.94405
G1 X-20.358 Y-33.777 E4.97695
G1 X-20.295 Y-33.821 E4.98117
G1 X-19.795 Y-34.16 E5.01432
G1 X-19.743 Y-34.194 E5.01773
G1 X-19.23 Y-34.529 E5.05136
G1 X-19.173 Y-34.566 E5.05509
G1 X-18.683 Y-34.873 E5.08682
G1 X-18.623 Y-34.909 E5.09066
G1 X-18.046 Y-35.255 E5.12758
G1 X-17.987 Y-35.29 E5.13134
G1 X-17.541 Y-35.546 E5.15957
G1 X-17.486 Y-35.577 E5.16303
G1 X-16.887 Y-35.907 E5.20056
G1 X-16.826 Y-35.94 E5.20437
G1 X-16.364 Y-36.183 E5.23302
G1 X-16.3 Y-36.216 E5.23697
G1 X-15.651 Y-36.541 E5.2768
G1 X-15.595 Y-36.568 E5.28021
G1 X-15.138 Y-36.787 E5.30802
G1 X-15.076 Y-36.816 E5.31178
G1 X-14.517 Y-37.071 E5.3455
G1 X-14.45 Y-37.101 E5.34953
G1 X-13.857 Y-37.357 E5.38497
G1 X-13.801 Y-37.381 E5.38832
G1 X-13.291 Y-37.591 E5.41859
G1 X-13.225 Y-37.617 E5.42248
G1 X-12.603 Y-37.859 E5.45911
G1 X-12.543 Y-37.882 E5.46263
G1 X-11.995 Y-38.084 E5.49468
G1 X-11.921 Y-38.11 E5.49899
G1 X-11.363 Y-38.302 E5.53137
G1 X-11.305 Y-38.322 E5.53474
G1 X-10.745 Y-38.504 E5.56705
G1 X-10.679 Y-38.524 E5.57084
G1 X-10.123 Y-38.693 E5.60273
G1 X-10.06 Y-38.712 E5.60634
G1 X-9.423 Y-38.893 E5.64268
G1 X-9.35 Y-38.913 E5.64684
G1 X-8.738 Y-39.073 E5.68155
G1 X-8.679 Y-39.088 E5.68489
G1 X-8.207 Y-39.203 E5.71155
G1 X-8.145 Y-39.217 E5.71504
G1 X-7.425 Y-39.379 E5.75554
G1 X-7.35 Y-39.395 E5.75975
G1 X-6.822 Y-39.502 E5.78932
G1 X-6.755 Y-39.515 E5.79306
G1 X-6.192 Y-39.618 E5.82447
G1 X-6.132 Y-39.629 E5.82782
G1 X-5.413 Y-39.748 E5.86781
G1 X-5.345 Y-39.758 E5.87159
G1 X-4.913 Y-39.821 E5.89555
G1 X-4.841 Y-39.831 E5.89953
G1 X-4.156 Y-39.917 E5.93742
G1 X-4.091 Y-39.925 E5.94102
G1 X-3.418 Y-39.997 E5.97816
G1 X-3.348 Y-40.003 E5.98202
G1 X-2.866 Y-40.045 E6.00857
G1 X-2.802 Y-40.05 E6.01209
G1 X-2.152 Y-40.095 E6.04785
G1 X-2.089 Y-40.099 E6.05131
G1 X-1.547 Y-40.127 E6.0811
G1 X-1.472 Y-40.13 E6.08522
G1 X-.695 Y-40.154 E6.12788
G1 X-.624 Y-40.156 E6.13177
G1 X-.17 Y-40.161 E6.15669
G1 X-.121 Y-40.161 E6.15938
G1 X0.266 Y-40.16 E6.18062
G1 X0.361 Y-40.158 E6.18583
G1 X1.572 Y-40.123 E6.25232
G1 X1.68 Y-40.119 E6.25825
G1 X2.715 Y-40.058 E6.31515
G1 X2.794 Y-40.052 E6.3195
G1 X3.188 Y-40.02 E6.34119
G1 X3.264 Y-40.013 E6.34538
G1 X3.908 Y-39.947 E6.38091
G1 X3.97 Y-39.94 E6.38433
G1 X4.561 Y-39.869 E6.417
G1 X4.629 Y-39.861 E6.42076
G1 X5.203 Y-39.781 E6.45256
G1 X5.271 Y-39.77 E6.45634
G1 X5.938 Y-39.664 E6.4934
G1 X6.006 Y-39.653 E6.49719
G1 X6.51 Y-39.563 E6.52528
G1 X6.574 Y-39.551 E6.52886
G1 X7.233 Y-39.421 E6.56572
G1 X7.302 Y-39.407 E6.56958
G1 X7.899 Y-39.277 E6.60311
G1 X7.965 Y-39.262 E6.60683
G1 X8.441 Y-39.149 E6.63368
G1 X8.5 Y-39.134 E6.63702
G1 X9.224 Y-38.949 E6.67803
G1 X9.302 Y-38.928 E6.68246
G1 X9.835 Y-38.779 E6.71283
G1 X9.891 Y-38.763 E6.71603
G1 X10.45 Y-38.597 E6.74803
G1 X10.517 Y-38.576 E6.75188
G1 X11.095 Y-38.392 E6.78517
G1 X11.164 Y-38.37 E6.78914
G1 X11.748 Y-38.171 E6.823
G1 X11.803 Y-38.151 E6.82622
G1 X12.377 Y-37.945 E6.85968
G1 X12.448 Y-37.919 E6.86383
G1 X13.028 Y-37.697 E6.89791
G1 X13.093 Y-37.671 E6.90176
G1 X13.631 Y-37.453 E6.93361
G1 X13.694 Y-37.427 E6.93735
G1 X14.218 Y-37.203 E6.96863
G1 X14.273 Y-37.179 E6.97192
G1 X14.899 Y-36.899 E7.00956
G1 X14.969 Y-36.867 E7.01378
G1 X15.417 Y-36.655 E7.04098
G1 X15.471 Y-36.629 E7.04427
G1 X16.117 Y-36.31 E7.08381
G1 X16.179 Y-36.278 E7.08764
G1 X16.646 Y-36.036 E7.1165
G1 X16.705 Y-36.005 E7.12016
G1 X17.325 Y-35.669 E7.15886
G1 X17.386 Y-35.635 E7.16269
G1 X17.818 Y-35.39 E7.18995
G1 X17.878 Y-35.356 E7.19373
G1 X18.443 Y-35.021 E7.22978
G1 X18.505 Y-34.983 E7.23377
G1 X18.966 Y-34.697 E7.26354
G1 X19.015 Y-34.666 E7.26672
G1 X19.637 Y-34.266 E7.30731
G1 X19.7 Y-34.225 E7.31143
G1 X20.067 Y-33.978 E7.33571
G1 X20.121 Y-33.941 E7.3393
G1 X20.687 Y-33.545 E7.37721
G1 X20.738 Y-33.508 E7.38067
G1 X21.194 Y-33.177 E7.41159
G1 X21.255 Y-33.132 E7.41575
G1 X21.781 Y-32.733 E7.45198
G1 X21.829 Y-32.696 E7.45531
G1 X22.277 Y-32.344 E7.48658
G1 X22.333 Y-32.299 E7.49052
G1 X22.84 Y-31.884 E7.52648
G1 X22.887 Y-31.844 E7.52986
G1 X23.254 Y-31.533 E7.55626
G1 X23.312 Y-31.483 E7.56047
G1 X23.867 Y-30.992 E7.60113
G1 X23.91 Y-30.954 E7.60428
G1 X24.292 Y-30.605 E7.63268
G1 X24.35 Y-30.551 E7.63703
G1 X24.815 Y-30.107 E7.67231
G1 X24.866 Y-30.057 E7.67623
G1 X25.313 Y-29.613 E7.7108
G1 X25.353 Y-29.573 E7.71391
G1 X25.709 Y-29.208 E7.74189
G1 X25.759 Y-29.155 E7.74589
G1 X26.249 Y-28.632 E7.78522
G1 X26.293 Y-28.585 E7.78875
G1 X26.65 Y-28.19 E7.81797
G1 X26.699 Y-28.134 E7.82206
G1 X27.123 Y-27.645 E7.85757
G1 X27.165 Y-27.596 E7.86112
G1 X27.527 Y-27.163 E7.89209
G1 X27.571 Y-27.11 E7.89587
G1 X27.973 Y-26.61 E7.93108
G1 X28.017 Y-26.554 E7.93499
G1 X28.369 Y-26.098 E7.9666
G1 X28.406 Y-26.049 E7.96997
G1 X28.76 Y-25.574 E8.00248
G1 X28.801 Y-25.518 E8.00629
G1 X29.178 Y-24.991 E8.04185
G1 X29.216 Y-24.936 E8.04552
G1 X29.551 Y-24.449 E8.07796
G1 X29.589 Y-24.392 E8.08172
G1 X29.927 Y-23.88 E8.11538
G1 X29.962 Y-23.828 E8.11882
G1 X30.26 Y-23.359 E8.14932
G1 X30.301 Y-23.292 E8.15363
G1 X30.617 Y-22.77 E8.18712
G1 X30.65 Y-22.713 E8.19073
G1 X30.989 Y-22.129 E8.22779
G1 X31.02 Y-22.075 E8.23121
G1 X31.272 Y-21.623 E8.25961
G1 X31.307 Y-21.559 E8.26361
G1 X31.621 Y-20.968 E8.30034
G1 X31.652 Y-20.909 E8.30399
G1 X31.918 Y-20.385 E8.33624
G1 X31.948 Y-20.323 E8.34002
G1 X32.22 Y-19.761 E8.37429
G1 X32.248 Y-19.702 E8.37787
G1 X32.483 Y-19.193 E8.40864
G1 X32.509 Y-19.136 E8.41208
G1 X32.744 Y-18.603 E8.44405
G1 X32.774 Y-18.533 E8.44822
G1 X33.063 Y-17.838 E8.48953
G1 X33.09 Y-17.771 E8.4935
G1 X33.234 Y-17.404 E8.51513
G1 X33.257 Y-17.346 E8.51856
G1 X33.533 Y-16.605 E8.56195
G1 X33.555 Y-16.544 E8.56551
G1 X33.698 Y-16.138 E8.58913
G1 X33.721 Y-16.07 E8.59307
G1 X33.958 Y-15.352 E8.63457
G1 X33.979 Y-15.286 E8.63837
G1 X34.133 Y-14.787 E8.66703
G1 X34.151 Y-14.728 E8.67041
G1 X34.336 Y-14.09 E8.70687
G1 X34.355 Y-14.021 E8.71079
G1 X34.491 Y-13.515 E8.73955
G1 X34.508 Y-13.449 E8.74329
G1 X34.674 Y-12.781 E8.78106
G1 X34.69 Y-12.713 E8.7849
G1 X34.817 Y-12.156 E8.81625
G1 X34.831 Y-12.093 E8.81979
G1 X34.942 Y-11.562 E8.84956
G1 X34.956 Y-11.492 E8.85348
G1 X35.1 Y-10.728 E8.89614
G1 X35.111 Y-10.663 E8.89976
G1 X35.178 Y-10.268 E8.92175
G1 X35.189 Y-10.201 E8.92548
G1 X35.298 Y-9.475 E8.96576
G1 X35.307 Y-9.41 E8.96937
G1 X35.379 Y-8.863 E8.99964
G1 X35.388 Y-8.793 E9.00352
G1 X35.459 Y-8.158 E9.03858
G1 X35.465 Y-8.094 E9.04211
G1 X35.514 Y-7.571 E9.07094
G1 X35.52 Y-7.499 E9.0749
G1 X35.571 Y-6.806 E9.11304
G1 X35.575 Y-6.742 E9.11656
G1 X35.606 Y-6.185 E9.14717
G1 X35.61 Y-6.116 E9.15096
G1 X35.634 Y-5.459 E9.18704
G1 X35.635 Y-5.393 E9.19067
G1 X35.644 Y-4.892 E9.21816
G1 X35.645 Y-4.827 E9.22173
G1 X35.645 Y-4.201 E9.25609
G1 X35.644 Y-4.13 E9.25998
G1 X35.63 Y-3.423 E9.29879
G1 X35.628 Y-3.355 E9.30252
G1 X35.609 Y-2.865 E9.32944
G1 X35.606 Y-2.791 E9.3335
G1 X35.562 Y-2.049 E9.37429
G1 X35.557 Y-1.98 E9.37809
G1 X35.521 Y-1.522 E9.4033
G1 X35.516 Y-1.461 E9.40666
G1 X35.451 Y-.781 E9.44415
G1 X35.443 Y-.705 E9.44834
G1 X35.378 Y-.15 E9.47901
G1 X35.37 Y-0.089 E9.48238
G1 X35.272 Y0.639 E9.5227
G1 X35.262 Y0.705 E9.52636
G1 X35.198 Y1.122 E9.54951
G1 X35.187 Y1.191 E9.55335
G1 X35.066 Y1.889 E9.59222
G1 X35.054 Y1.955 E9.5959
G1 X34.938 Y2.557 E9.62955
G1 X34.926 Y2.617 E9.63291
G1 X34.805 Y3.192 E9.66515
G1 X34.788 Y3.267 E9.66937
G1 X34.67 Y3.774 E9.69794
G1 X34.654 Y3.843 E9.70183
G1 X34.461 Y4.604 E9.74491
G1 X34.444 Y4.665 E9.74839
G1 X34.344 Y5.032 E9.76926
G1 X34.326 Y5.097 E9.77297
G1 X34.118 Y5.808 E9.81362
G1 X34.098 Y5.873 E9.81735
G1 X33.906 Y6.486 E9.85261
G1 X33.885 Y6.551 E9.85635
G1 X33.739 Y6.988 E9.88164
G1 X33.718 Y7.05 E9.88523
G1 X33.468 Y7.755 E9.92628
